Papirus/22x22/panel/copyq-busy.svg

<?xml version="1.0" encoding="UTF-8" standalone="no"?>
<svg xmlns:osb="http://www.openswatchbook.org/uri/2009/osb" xmlns:dc="http://purl.org/dc/elements/1.1/" xmlns:cc="http://creativecommons.org/ns#" xmlns:rdf="http://www.w3.org/1999/02/22-rdf-syntax-ns#" xmlns:svg="http://www.w3.org/2000/svg" xmlns="http://www.w3.org/2000/svg" height="22" id="svg7384" style="enable-background:new" version="1.1" width="22">
    <metadata id="metadata90">
        <rdf:RDF>
            <cc:Work rdf:about="">
                <dc:format>
                    image/svg+xml
                </dc:format>
                <dc:type rdf:resource="http://purl.org/dc/dcmitype/StillImage"/>
                <dc:title>
                    Paper Symbolic Icon Theme
                </dc:title>
            </cc:Work>
        </rdf:RDF>
    </metadata>
    <title id="title8473">
        Paper Symbolic Icon Theme
    </title>
    <defs id="defs7386">
        <linearGradient id="linearGradient5606" osb:paint="solid">
            <stop id="stop5608" offset="0" style="stop-color:#ffffff;stop-opacity:1;"/>
        </linearGradient>
        <filter id="filter7554" style="color-interpolation-filters:sRGB">
            <feBlend id="feBlend7556" in2="BackgroundImage" mode="darken"/>
        </filter>
    </defs>
    <path id="rect4248" d="M 7.5,3 C 5.5670034,3 4,4.5670034 4,6.5 4,8.4329966 5.5670034,10 7.5,10 7.7603516,9.9989121 8.019769,9.9687777 8.2734375,9.9101562 L 10,12.5 c -2.25,3.5 1,6.5 1,6.5 0,0 3.25,-3 1,-6.5 L 13.728516,9.9101562 C 13.981548,9.9686336 14.240302,9.998767 14.5,10 16.432997,10 18,8.4329966 18,6.5 18,4.5670034 16.432997,3 14.5,3 12.567003,3 11,4.5670034 11,6.5 c 0.0012,0.8060795 0.280612,1.5870359 0.791016,2.2109375 L 11,10 10.210938,8.7128906 C 10.721063,8.0882045 10.999795,7.3065111 11,6.5 11,4.5670034 9.4329966,3 7.5,3 Z m 0,2 C 8.3284271,5 9,5.6715729 9,6.5 9,7.3284271 8.3284271,8 7.5,8 6.6715729,8 6,7.3284271 6,6.5 6,5.6715729 6.6715729,5 7.5,5 Z m 7,0 C 15.328427,5 16,5.6715729 16,6.5 16,7.3284271 15.328427,8 14.5,8 13.671573,8 13,7.3284271 13,6.5 13,5.6715729 13.671573,5 14.5,5 Z" style="opacity:1;fill:#ffffff;fill-opacity:1;stroke:none"/>
</svg>

<?xml version="1.0" encoding="UTF-8" standalone="no"?>
<svg id="svg7384" xmlns:rdf="http://www.w3.org/1999/02/22-rdf-syntax-ns#" style="enable-background:new" xmlns="http://www.w3.org/2000/svg" xmlns:osb="http://www.openswatchbook.org/uri/2009/osb" height="22" width="22" version="1.1" xmlns:cc="http://creativecommons.org/ns#" xmlns:dc="http://purl.org/dc/elements/1.1/">
 <metadata id="metadata90">
  <rdf:RDF>
   <cc:Work rdf:about="">
    <dc:format>image/svg+xml</dc:format>
    <dc:type rdf:resource="http://purl.org/dc/dcmitype/StillImage"/>
   </cc:Work>
  </rdf:RDF>
 </metadata>
 <path id="rect4248" d="m7.5 3c-1.933 0-3.5 1.567-3.5 3.5s1.567 3.5 3.5 3.5c0.2604-0.0011 0.5198-0.0312 0.7734-0.0898l1.7266 2.5898c-2.25 3.5 1 6.5 1 6.5s3.25-3 1-6.5l1.729-2.5898c0.253 0.0584 0.511 0.0886 0.771 0.0898 1.933 0 3.5-1.567 3.5-3.5s-1.567-3.5-3.5-3.5-3.5 1.567-3.5 3.5c0.0012 0.80608 0.28061 1.587 0.79102 2.2109l-0.791 1.2891-0.789-1.2871c0.51-0.6247 0.789-1.4064 0.789-2.2129 0-1.933-1.567-3.5-3.5-3.5zm0 2c0.8284 0 1.5 0.6716 1.5 1.5s-0.6716 1.5-1.5 1.5-1.5-0.6716-1.5-1.5 0.6716-1.5 1.5-1.5zm7 0c0.828 0 1.5 0.6716 1.5 1.5s-0.672 1.5-1.5 1.5-1.5-0.6716-1.5-1.5 0.672-1.5 1.5-1.5z" fill="#fff"/>
</svg>
